X:494
%%etbk:tnset id:219,pos:1,rep:3x,ant:
%%etbk:pldat 2016-09-17T15:03,2016-09-16T15:22,2016-09-15T18:31,2016-09-13T15:22,2016-09-12T18:57,2016-09-06T17:54,2016-09-04T14:16,2015-08-15T16:39,2015-08-11T16:59,2014-09-21T12:06,2014-04-06T16:45,2014-03-25T17:44,2014-03-23T16:16,2013-11-27T17:52,2013-11-26T17:23,2013-10-05T15:51,2013-09-29T15:21,2013-09-27T15:34,2013-09-16T16:01
T:An Sean Duine
Z: Piano Box Version by Martin Fleischmann
H: Created 2013-09-15 /  Last Modified 2014-08-11
M:6/8
L:1/8
R:jig
K:Gmaj
|:"G"!1!G!1!A!2!B !3!dB!1!A|!1!G!1!A!2!B !2!B2!1!A|!1!G!1!A!2!B !4!ed!2!B| "D"!3!dB!1!A !1!A2!3!d|
"G"!1!G!1!A!2!B !3!dBA| !2!BAB !5!g2!4!e| "D"!5!fed !4!edB|1 !3!d!2!B!1!A !3!A2!3!d:|2 dBA A2B||
|:"G"!3!d!2!BB !5!gBB|!3!d!2!BB !3!d2e|!3!dBB !5!g!4!fg| "D"!4!ed!2!B !1!A2d|
"G"!1!G!1!A!2!B !3!dBA|!2!BAB !5!g2!4!e| "D"!5!fed !4!edB|1 !3!dBA A2B:|2 dBA A2D||


